X:1
M:4/4% Meter / Taktart
L:1/4% Standard Noten Länge
K:Gmaj
"D"d2 | "G"gg "D"f f/2f/2 | "Em"e e "D"d d | "Em"ee "D"dd | "C"cc "G"B (d/2d/2 | "D"d2) z (d/2d/2 | "D"d2) z d | 
w:So-lang der Bauch in die Wes-te passt, wird kei-ne Ar-beit an-ge-fasst. Mei-ne Damen, mei-ne Herrn, die
d c B A | "G"G z "D"d2 | "G"gg "D"ff | "Em"ee "D"dd | "C"cc "D"BA | "G"G2
w:Ar-beit ist kein Frosch! Sie hüpft, sie hüpft, sie hüpft, sie hüpft, sie hüpft uns nicht da-von.